X:8
T:I'm a Zombie Too
C:Gordon Fisch
N:Halloween Composition 2007
Z:Gordon Fisch
R:waltz
M:3/4
L:1/8
K:G
|: g2 (3f/g/f/ | e3 | b2 a | ~f e2 | g2 (3f/g/f/ | e2 (3d/^c/=c/| _B3 | _B =B B :|
K:Bb
| B2 (3A/B/A/ | G3 | d2 c | ~B G2 | B2 (3A/B/A/ | G2 (3D/E/F/| F3 | F3 |
| B2 (3A/B/A/ | G3 | d2 c | ~B G2 | B2 (3A/B/A/ | G2 (3D/E/F/ | F3 | F3 | F3 | F ^F^F |
w: | | | | | | AH____________
